svg/aws-ec2-beanstalk.svg

<?xml version="1.0" encoding="UTF-8"?>
<svg xmlns="http://www.w3.org/2000/svg" xmlns:xlink="http://www.w3.org/1999/xlink" width="32" height="32" viewBox="0 0 32 32">
<path fill-rule="evenodd" fill="rgb(83.137255%, 35.686275%, 2.745098%)" fill-opacity="1" d="M 20.238281 15.195312 C 17.152344 18.347656 12.160156 18.8125 9.457031 18.808594 C 11.960938 16.894531 14.527344 14.613281 16.964844 12.125 C 19.511719 9.527344 21.835938 6.777344 23.777344 4.089844 C 23.789062 6.863281 23.347656 12.019531 20.238281 15.195312 M 12.230469 5.671875 C 12.304688 5.605469 12.382812 5.550781 12.460938 5.488281 C 12.625 5.359375 12.785156 5.238281 12.953125 5.121094 C 13.046875 5.058594 13.140625 4.996094 13.234375 4.9375 C 13.488281 4.773438 13.75 4.621094 14.015625 4.476562 C 14.203125 4.378906 14.386719 4.289062 14.578125 4.199219 C 14.65625 4.160156 14.734375 4.121094 14.816406 4.085938 C 15.082031 3.96875 15.347656 3.859375 15.617188 3.761719 C 15.691406 3.734375 15.761719 3.710938 15.832031 3.6875 C 16.035156 3.617188 16.242188 3.546875 16.445312 3.484375 L 16.773438 3.394531 C 16.941406 3.347656 17.109375 3.300781 17.277344 3.257812 C 17.390625 3.230469 17.507812 3.203125 17.621094 3.179688 C 17.785156 3.140625 17.949219 3.105469 18.113281 3.074219 L 18.441406 3.011719 C 18.621094 2.980469 18.796875 2.953125 18.972656 2.925781 L 19.234375 2.886719 C 19.484375 2.851562 19.726562 2.820312 19.964844 2.796875 C 20.074219 2.789062 20.175781 2.777344 20.277344 2.769531 L 20.695312 2.734375 C 20.808594 2.726562 20.917969 2.722656 21.023438 2.714844 C 21.148438 2.707031 21.269531 2.703125 21.386719 2.699219 L 21.695312 2.6875 C 21.808594 2.683594 21.917969 2.683594 22.027344 2.679688 L 22.296875 2.679688 C 22.523438 2.679688 22.75 2.679688 22.976562 2.6875 C 23.035156 2.6875 23.089844 2.691406 23.144531 2.691406 C 21.15625 5.519531 18.710938 8.441406 16.011719 11.191406 C 13.417969 13.839844 10.675781 16.253906 8.027344 18.222656 C 8.027344 18.175781 8.023438 18.128906 8.023438 18.082031 C 8.019531 17.976562 8.015625 17.871094 8.015625 17.765625 C 8.011719 17.6875 8.011719 17.597656 8.011719 17.511719 L 8.011719 17.179688 C 8.011719 17.070312 8.015625 16.953125 8.015625 16.839844 C 8.019531 16.726562 8.019531 16.621094 8.023438 16.503906 C 8.03125 16.28125 8.042969 16.050781 8.054688 15.8125 C 8.058594 15.722656 8.070312 15.628906 8.074219 15.539062 C 8.085938 15.375 8.097656 15.207031 8.113281 15.035156 L 8.148438 14.707031 C 8.167969 14.542969 8.183594 14.382812 8.207031 14.21875 C 8.21875 14.101562 8.238281 13.980469 8.257812 13.859375 C 8.28125 13.695312 8.304688 13.53125 8.332031 13.367188 L 8.402344 12.988281 C 8.433594 12.824219 8.464844 12.660156 8.5 12.492188 C 8.527344 12.363281 8.558594 12.234375 8.589844 12.105469 C 8.628906 11.9375 8.671875 11.773438 8.71875 11.605469 C 8.75 11.476562 8.789062 11.34375 8.828125 11.214844 C 8.878906 11.046875 8.929688 10.882812 8.984375 10.714844 C 9.027344 10.585938 9.074219 10.457031 9.117188 10.328125 C 9.179688 10.160156 9.246094 9.996094 9.3125 9.832031 C 9.363281 9.707031 9.414062 9.578125 9.46875 9.453125 C 9.542969 9.289062 9.621094 9.125 9.703125 8.960938 L 9.882812 8.601562 C 9.972656 8.433594 10.070312 8.269531 10.167969 8.105469 L 10.363281 7.785156 C 10.480469 7.609375 10.605469 7.4375 10.734375 7.265625 C 10.796875 7.183594 10.855469 7.09375 10.917969 7.011719 C 11.117188 6.761719 11.328125 6.519531 11.554688 6.289062 C 11.769531 6.070312 11.996094 5.863281 12.230469 5.671875 M 25.019531 2.027344 C 25.015625 2.023438 25.015625 2.015625 25.015625 2.011719 C 25.003906 1.949219 24.988281 1.886719 24.960938 1.828125 C 24.960938 1.824219 24.957031 1.820312 24.957031 1.820312 C 24.953125 1.808594 24.941406 1.796875 24.9375 1.785156 C 24.910156 1.738281 24.878906 1.695312 24.84375 1.65625 C 24.828125 1.640625 24.8125 1.625 24.796875 1.613281 C 24.761719 1.582031 24.722656 1.554688 24.683594 1.53125 L 24.628906 1.5 C 24.566406 1.472656 24.503906 1.453125 24.4375 1.441406 C 24.074219 1.398438 15.445312 0.410156 10.601562 5.355469 C 6.738281 9.300781 6.574219 15.691406 6.691406 18.300781 L 6.671875 18.300781 L 6.671875 30.660156 L 8.003906 30.660156 L 8.003906 20.097656 C 8.402344 20.125 8.925781 20.152344 9.558594 20.152344 C 12.5625 20.152344 17.792969 19.597656 21.191406 16.128906 C 26.027344 11.1875 25.0625 2.398438 25.019531 2.027344 "/>
</svg>

<svg role="img" viewBox="0 0 32 32" height="32" width="32" xmlns="http://www.w3.org/2000/svg"><path d="M20.238 15.195c-3.086 3.153-8.078 3.617-10.781 3.614 2.504-1.914 5.07-4.196 7.508-6.684 2.547-2.598 4.87-5.348 6.812-8.035.012 2.773-.43 7.93-3.539 11.105M12.23 5.672c.075-.067.153-.121.23-.184.165-.129.325-.25.493-.367.094-.062.188-.125.281-.184.254-.164.516-.316.782-.46.187-.098.37-.188.562-.278.078-.039.156-.078.238-.113.266-.117.532-.227.801-.324.074-.028.145-.051.215-.075.203-.07.41-.14.613-.203l.328-.09c.168-.046.336-.093.504-.136.114-.028.23-.055.344-.078.164-.04.328-.075.492-.106l.328-.062c.18-.032.356-.059.532-.086l.261-.04c.25-.034.493-.066.73-.09.11-.007.212-.019.313-.026l.418-.036c.114-.007.223-.011.328-.02.125-.007.247-.01.364-.015l.308-.011c.114-.004.223-.004.332-.008h.27c.226 0 .453 0 .68.007.058 0 .113.004.168.004-1.989 2.829-4.434 5.75-7.133 8.5-2.594 2.649-5.336 5.063-7.985 7.032 0-.047-.004-.094-.004-.141a8.55 8.55 0 0 1-.007-.316c-.004-.078-.004-.168-.004-.254v-.332c0-.11.004-.227.004-.34.004-.113.004-.219.007-.336.008-.223.02-.453.032-.692.004-.09.015-.183.02-.273.01-.164.023-.332.038-.504l.035-.328c.02-.164.036-.324.059-.488.012-.117.031-.239.05-.36.024-.164.048-.328.075-.492l.07-.379c.032-.164.063-.328.098-.496.027-.129.059-.258.09-.387.039-.168.082-.332.129-.5a19.127 19.127 0 0 1 .265-.89c.043-.13.09-.258.133-.387.063-.168.13-.332.195-.496.051-.125.102-.254.157-.379.074-.164.152-.328.234-.492l.18-.36c.09-.167.187-.331.285-.496l.195-.32c.117-.176.242-.348.371-.52.063-.081.121-.171.184-.253.2-.25.41-.492.637-.723.215-.219.441-.426.675-.617m12.79-3.645c-.004-.004-.004-.011-.004-.015a.763.763 0 0 0-.055-.184c0-.004-.004-.008-.004-.008-.004-.011-.016-.023-.02-.035a.778.778 0 0 0-.093-.129c-.016-.015-.032-.031-.047-.043a.758.758 0 0 0-.113-.082l-.055-.031a.833.833 0 0 0-.192-.059c-.363-.043-8.992-1.03-13.835 3.914-3.864 3.946-4.028 10.336-3.91 12.946h-.02v12.36h1.332V20.097c.398.027.922.054 1.555.054 3.004 0 8.234-.554 11.632-4.023 4.836-4.942 3.872-13.73 3.829-14.102" fill="rgb(83.137255%, 35.686275%, 2.745098%)" fill-rule="evenodd"/></svg>
